dist/img/icons/security/filter.svg

<svg width="26" height="26" viewBox="0 0 26 26" fill="none" xmlns="http://www.w3.org/2000/svg">
<g clip-path="url(#clip0)">
<path d="M24.6019 0.000490239H1.42162C1.01278 -0.000283102 0.637969 0.228109 0.451079 0.591836C0.261611 0.960461 0.294865 1.40436 0.53692 1.74102L9.0292 13.704C9.03204 13.7082 9.03513 13.712 9.03797 13.7162C9.34653 14.1327 9.51331 14.6372 9.51435 15.1559V24.9092C9.51254 25.1982 9.62596 25.4755 9.82961 25.6805C10.0333 25.8854 10.3101 26.0004 10.5988 26.0004C10.7458 26.0004 10.8909 25.971 11.0265 25.9148L15.7985 24.0951C16.2261 23.9647 16.51 23.5613 16.51 23.0754V15.1559C16.5107 14.6375 16.6778 14.1327 16.9861 13.7162C16.9889 13.712 16.992 13.7082 16.9948 13.704L25.4869 1.7405C25.7289 1.4041 25.7622 0.960461 25.5727 0.591836C25.3858 0.228109 25.011 -0.000283102 24.6019 0.000490239ZM15.922 12.9343C15.4477 13.578 15.1912 14.3562 15.1896 15.1559V22.915L10.8342 24.5756V15.1559C10.8326 14.3562 10.5761 13.578 10.1016 12.9343L1.85701 1.32032H24.1668L15.922 12.9343Z" fill="white"/>
</g>
<defs>
<clipPath id="clip0">
<rect width="26" height="26" fill="white" transform="translate(0 0.000488281)"/>
</clipPath>
</defs>
</svg>

<svg width="26" height="26" fill="none" xmlns="http://www.w3.org/2000/svg"><g clip-path="url(#clip0)"><path d="M24.602 0H1.422c-.41 0-.784.228-.97.592-.19.368-.157.812.085 1.149l8.492 11.963.009.012c.309.417.475.921.476 1.44v9.753a1.084 1.084 0 001.513 1.006l4.772-1.82c.427-.13.711-.534.711-1.02v-7.92c0-.518.168-1.022.476-1.439l.009-.012 8.492-11.963c.242-.337.275-.78.086-1.15a1.089 1.089 0 00-.971-.59zm-8.68 12.934a3.758 3.758 0 00-.732 2.222v7.759l-4.356 1.66v-9.42a3.756 3.756 0 00-.732-2.22L1.857 1.32h22.31l-8.245 11.614z" fill="#fff"/></g><defs><clipPath id="clip0"><path fill="#fff" d="M0 0h26v26H0z"/></clipPath></defs></svg>
